img/box.svg

<svg width="48" height="49" viewBox="0 0 48 49" fill="none" xmlns="http://www.w3.org/2000/svg">
<g clip-path="url(#clip0_1_200)">
<path d="M24.8 46.251V19.051L46.4 10.859V38.029L24.8 46.251ZM1.6 10.86L8.8 13.592V26.685C8.80003 26.8469 8.84917 27.005 8.94095 27.1384C9.03272 27.2717 9.1628 27.3741 9.314 27.432L14.914 29.576C15.0352 29.6224 15.1659 29.6386 15.2948 29.6232C15.4237 29.6079 15.5469 29.5613 15.6538 29.4877C15.7607 29.4141 15.8481 29.3156 15.9084 29.2006C15.9687 29.0857 16.0001 28.9578 16 28.828V16.321L23.2 19.052V46.247L1.6 37.951V10.86ZM11.674 12.97L21.35 9.3L25.064 10.708L15.384 14.375L11.674 12.97ZM10.4 14.197L14.4 15.717V27.666L10.4 26.134V14.197ZM23.995 1.755L44.935 9.695L23.995 17.635L17.635 15.223L27.589 11.454C27.7405 11.3962 27.8708 11.2938 27.9628 11.1604C28.0547 11.0269 28.104 10.8686 28.104 10.7065C28.104 10.5444 28.0547 10.3861 27.9628 10.2526C27.8708 10.1192 27.7405 10.0168 27.589 9.959L21.623 7.696C21.4403 7.62678 21.2387 7.62678 21.056 7.696L9.416 12.107L3.056 9.695L23.995 1.755ZM47.483 8.952L24.283 0.152C24.1007 0.0824714 23.8993 0.0824714 23.717 0.152L0.517 8.952C0.36508 9.00946 0.234248 9.11179 0.141898 9.24541C0.049548 9.37902 5.52289e-05 9.53758 0 9.7L0 38.5C2.64127e-05 38.6619 0.0491733 38.82 0.140947 38.9534C0.23272 39.0867 0.362801 39.1891 0.514 39.247L23.714 48.159C23.8976 48.229 24.1004 48.229 24.284 48.159L47.484 39.327C47.6356 39.2694 47.7661 39.1672 47.8582 39.0338C47.9504 38.9004 47.9998 38.7421 48 38.58V9.7C47.9999 9.53758 47.9505 9.37902 47.8581 9.24541C47.7658 9.11179 47.6349 9.00946 47.483 8.952Z" fill="#BB9D60"/>
<path d="M32.518 38.518L27.706 40.348C27.6078 40.3854 27.5179 40.4418 27.4414 40.514C27.365 40.5862 27.3036 40.6727 27.2606 40.7686C27.2176 40.8645 27.1939 40.968 27.1909 41.073C27.1879 41.1781 27.2056 41.2828 27.243 41.381C27.2804 41.4792 27.3368 41.5691 27.409 41.6455C27.4812 41.722 27.5677 41.7834 27.6636 41.8264C27.7595 41.8694 27.863 41.8931 27.9681 41.8961C28.0731 41.8991 28.1778 41.8814 28.276 41.844L33.086 40.013C33.1872 39.978 33.2804 39.923 33.36 39.8514C33.4396 39.7797 33.504 39.6928 33.5493 39.5958C33.5947 39.4988 33.6201 39.3936 33.6241 39.2866C33.6281 39.1796 33.6105 39.0729 33.5725 38.9727C33.5345 38.8726 33.4767 38.7812 33.4027 38.7038C33.3286 38.6264 33.2398 38.5647 33.1415 38.5223C33.0431 38.4799 32.9373 38.4576 32.8302 38.4569C32.7231 38.4562 32.6169 38.4769 32.518 38.518Z" fill="#BB9D60"/>
<path d="M37.307 36.688L35.697 37.3C35.5988 37.3373 35.5088 37.3936 35.4324 37.4656C35.3559 37.5377 35.2944 37.6241 35.2513 37.7199C35.2082 37.8157 35.1844 37.9191 35.1813 38.0241C35.1781 38.1292 35.1957 38.2338 35.233 38.332C35.2703 38.4302 35.3266 38.5202 35.3986 38.5966C35.4707 38.6731 35.5571 38.7347 35.6529 38.7777C35.7487 38.8208 35.8521 38.8446 35.9571 38.8477C36.0622 38.8509 36.1668 38.8333 36.265 38.796L37.875 38.183C37.9762 38.148 38.0694 38.0931 38.149 38.0214C38.2286 37.9497 38.293 37.8628 38.3383 37.7658C38.3837 37.6688 38.4091 37.5637 38.4131 37.4566C38.4171 37.3496 38.3995 37.2429 38.3615 37.1428C38.3235 37.0426 38.2657 36.9512 38.1917 36.8738C38.1176 36.7964 38.0288 36.7347 37.9305 36.6923C37.8321 36.6499 37.7263 36.6276 37.6192 36.6269C37.5121 36.6262 37.4059 36.6469 37.307 36.688Z" fill="#BB9D60"/>
<path d="M32.518 35.318L27.706 37.148C27.5076 37.2236 27.3474 37.3749 27.2606 37.5686C27.1737 37.7623 27.1674 37.9826 27.243 38.181C27.3186 38.3794 27.4699 38.5396 27.6636 38.6264C27.8573 38.7133 28.0776 38.7196 28.276 38.644L33.086 36.813C33.1872 36.778 33.2804 36.7231 33.36 36.6514C33.4396 36.5797 33.504 36.4928 33.5493 36.3958C33.5947 36.2988 33.6201 36.1937 33.6241 36.0866C33.6281 35.9796 33.6105 35.8729 33.5725 35.7728C33.5345 35.6727 33.4767 35.5812 33.4027 35.5038C33.3286 35.4264 33.2398 35.3647 33.1415 35.3223C33.0431 35.2799 32.9373 35.2577 32.8302 35.2569C32.7231 35.2562 32.6169 35.277 32.518 35.318Z" fill="#BB9D60"/>
<path d="M37.307 33.488L35.697 34.1C35.5988 34.1373 35.5088 34.1936 35.4324 34.2656C35.3559 34.3377 35.2944 34.4241 35.2513 34.5199C35.2082 34.6157 35.1844 34.7191 35.1813 34.8241C35.1781 34.9291 35.1957 35.0338 35.233 35.132C35.2703 35.2302 35.3266 35.3201 35.3986 35.3966C35.4707 35.4731 35.5571 35.5346 35.6529 35.5777C35.7487 35.6208 35.8521 35.6446 35.9571 35.6477C36.0622 35.6509 36.1668 35.6333 36.265 35.596L37.875 34.983C37.9762 34.948 38.0694 34.893 38.149 34.8214C38.2286 34.7497 38.293 34.6628 38.3383 34.5658C38.3837 34.4688 38.4091 34.3636 38.4131 34.2566C38.4171 34.1496 38.3995 34.0429 38.3615 33.9427C38.3235 33.8426 38.2657 33.7512 38.1917 33.6738C38.1176 33.5964 38.0288 33.5347 37.9305 33.4923C37.8321 33.4499 37.7263 33.4276 37.6192 33.4269C37.5121 33.4262 37.4059 33.4469 37.307 33.488Z" fill="#BB9D60"/>
<path d="M32.518 32.118L27.706 33.948C27.6078 33.9854 27.5179 34.0418 27.4414 34.114C27.365 34.1862 27.3036 34.2727 27.2606 34.3686C27.2176 34.4645 27.1939 34.568 27.1909 34.6731C27.1879 34.7781 27.2056 34.8828 27.243 34.981C27.2804 35.0792 27.3368 35.1691 27.409 35.2455C27.4812 35.322 27.5677 35.3834 27.6636 35.4264C27.7595 35.4694 27.863 35.4931 27.9681 35.4961C28.0731 35.4991 28.1778 35.4814 28.276 35.444L33.086 33.613C33.1872 33.578 33.2804 33.5231 33.36 33.4514C33.4396 33.3797 33.504 33.2928 33.5493 33.1958C33.5947 33.0988 33.6201 32.9937 33.6241 32.8866C33.6281 32.7796 33.6105 32.6729 33.5725 32.5728C33.5345 32.4726 33.4767 32.3812 33.4027 32.3038C33.3286 32.2264 33.2398 32.1647 33.1415 32.1223C33.0431 32.0799 32.9373 32.0576 32.8302 32.0569C32.7231 32.0562 32.6169 32.0769 32.518 32.118Z" fill="#BB9D60"/>
<path d="M37.307 30.288L35.697 30.9C35.5988 30.9373 35.5088 30.9936 35.4324 31.0656C35.3559 31.1377 35.2944 31.2241 35.2513 31.3199C35.2082 31.4157 35.1844 31.5191 35.1813 31.6241C35.1781 31.7292 35.1957 31.8338 35.233 31.932C35.2703 32.0302 35.3266 32.1202 35.3986 32.1966C35.4707 32.2731 35.5571 32.3347 35.6529 32.3777C35.7487 32.4208 35.8521 32.4446 35.9571 32.4478C36.0622 32.4509 36.1668 32.4333 36.265 32.396L37.875 31.783C37.9762 31.748 38.0694 31.6931 38.149 31.6214C38.2286 31.5497 38.293 31.4628 38.3383 31.3658C38.3837 31.2688 38.4091 31.1637 38.4131 31.0566C38.4171 30.9496 38.3995 30.8429 38.3615 30.7428C38.3235 30.6427 38.2657 30.5512 38.1917 30.4738C38.1176 30.3964 38.0288 30.3347 37.9305 30.2923C37.8321 30.2499 37.7263 30.2277 37.6192 30.2269C37.5121 30.2262 37.4059 30.247 37.307 30.288Z" fill="#BB9D60"/>
</g>
<defs>
<clipPath id="clip0_1_200">
<rect width="48" height="49" fill="white"/>
</clipPath>
</defs>
</svg>

<svg width="48" height="49" fill="none" xmlns="http://www.w3.org/2000/svg"><g clip-path="url(#clip0_1_200)" fill="#BB9D60"><path d="M24.8 46.251v-27.2l21.6-8.192v27.17l-21.6 8.222zM1.6 10.86l7.2 2.732v13.093a.8.8 0 00.514.747l5.6 2.144A.8.8 0 0016 28.828V16.321l7.2 2.731v27.195L1.6 37.951V10.86zm10.074 2.11L21.35 9.3l3.714 1.408-9.68 3.667-3.71-1.405zM10.4 14.197l4 1.52v11.949l-4-1.532V14.197zM23.995 1.755l20.94 7.94-20.94 7.94-6.36-2.412 9.954-3.769a.8.8 0 000-1.495l-5.966-2.263a.8.8 0 00-.567 0l-11.64 4.411-6.36-2.412 20.939-7.94zm23.488 7.197l-23.2-8.8a.794.794 0 00-.566 0l-23.2 8.8A.8.8 0 000 9.7v28.8a.8.8 0 00.514.747l23.2 8.912a.8.8 0 00.57 0l23.2-8.832A.8.8 0 0048 38.58V9.7a.8.8 0 00-.517-.748z"/><path d="M32.518 38.518l-4.812 1.83a.8.8 0 10.57 1.496l4.81-1.831a.802.802 0 00.317-1.31.8.8 0 00-.885-.185zm4.789-1.83l-1.61.612a.8.8 0 00.568 1.496l1.61-.613a.8.8 0 10-.568-1.495zm-4.789-1.37l-4.812 1.83a.8.8 0 00.57 1.496l4.81-1.831a.8.8 0 10-.568-1.495zm4.789-1.83l-1.61.612a.8.8 0 00.568 1.496l1.61-.613a.802.802 0 00.317-1.31.8.8 0 00-.885-.185zm-4.789-1.37l-4.812 1.83a.8.8 0 10.57 1.496l4.81-1.831a.8.8 0 10-.568-1.495zm4.789-1.83l-1.61.612a.8.8 0 00.568 1.496l1.61-.613a.8.8 0 10-.568-1.495z"/></g><defs><clipPath id="clip0_1_200"><path fill="#fff" d="M0 0h48v49H0z"/></clipPath></defs></svg>
